src/22x22/places/folder-gruvbox-mix-purple-unlocked.svg

<?xml version="1.0" encoding="UTF-8"?>
<svg width="22" height="22" version="1" xmlns="http://www.w3.org/2000/svg">
 <rect x="1" y="8.5" width="20" height="12" rx="1" ry="1" opacity=".2"/>
 <path d="m1 16c0 0.554 0.446 1 1 1h18c0.554 0 1-0.446 1-1v-11c0-0.554-0.446-1-1-1h-9c-1.5 0-2-2-3.5-2h-5.5c-0.554 0-1 0.446-1 1" fill="#924f79"/>
 <rect x="1" y="7.5" width="20" height="12" rx="1" ry="1" opacity=".2"/>
 <rect x="3" y="6" width="16" height="8" rx="1" ry="1" fill="#E6DCBB"/>
 <rect x="1" y="8" width="20" height="12" rx="1" ry="1" fill="#d3869b"/>
 <path d="m2 2c-0.554 0-1 0.446-1 1v0.5c0-0.554 0.446-1 1-1h5.5c1.5 0 2 2 3.5 2h9c0.554 0 1 0.446 1 1v-0.5c0-0.554-0.446-1-1-1h-9c-1.5 0-2-2-3.5-2z" fill="#E6DCBB" opacity=".1"/>
 <path d="m11 10c-1.097 0-1.979 0.894-1.996 2h0.996c0-0.555 0.446-1 1-1s1 0.445 1 1v2h-3.5c-0.277 0-0.5 0.223-0.5 0.5v3c0 0.277 0.223 0.5 0.5 0.5h5c0.277 0 0.5-0.223 0.5-0.5v-3c0-0.277-0.223-0.5-0.5-0.5h-0.5v-1.969c0-1.12-0.892-2.031-2-2.031z" fill="#423B3A"/>
</svg>

<svg xmlns="http://www.w3.org/2000/svg" width="22" height="22" version="1">
 <rect style="opacity:0.2" width="20" height="12" x="1" y="8.5" rx="1" ry="1"/>
 <path style="fill:#924f79" d="M 1,16 C 1,16.554 1.446,17 2,17 H 20 C 20.554,17 21,16.554 21,16 V 5 C 21,4.446 20.554,4 20,4 H 11 C 9.5,4 9,2 7.5,2 H 2 C 1.446,2 1,2.446 1,3"/>
 <rect style="opacity:0.2" width="20" height="12" x="1" y="7.5" rx="1" ry="1"/>
 <rect style="fill:#E6DCBB" width="16" height="8" x="3" y="6" rx="1" ry="1"/>
 <rect style="fill:#d3869b" width="20" height="12" x="1" y="8" rx="1" ry="1"/>
 <path style="opacity:0.1;fill:#E6DCBB" d="M 2,2 C 1.446,2 1,2.446 1,3 V 3.5 C 1,2.946 1.446,2.5 2,2.5 H 7.5 C 9,2.5 9.5,4.5 11,4.5 H 20 C 20.554,4.5 21,4.946 21,5.5 V 5 C 21,4.446 20.554,4 20,4 H 11 C 9.5,4 9,2 7.5,2 Z"/>
 <path style="fill:#423B3A" d="M 11,10 C 9.903,10 9.021,10.894 9.004,12 H 10 C 10,11.445 10.446,11 11,11 11.554,11 12,11.445 12,12 V 14 H 11 10 9 8.5 C 8.223,14 8,14.223 8,14.5 V 17.5 C 8,17.777 8.223,18 8.5,18 H 13.5 C 13.777,18 14,17.777 14,17.5 V 14.5 C 14,14.223 13.777,14 13.5,14 H 13 V 12.031 C 13,10.911 12.108,10 11,10 Z"/>
</svg>
